images/portal/4290.svg

<?xml version="1.0" standalone="no"?><!DOCTYPE svg PUBLIC "-//W3C//DTD SVG 1.1//EN" "http://www.w3.org/Graphics/SVG/1.1/DTD/svg11.dtd"><svg xmlns:xlink="http://www.w3.org/1999/xlink" version="1.1" class="highcharts-root" style="font-family:arial;font-size:9pt;" xmlns="http://www.w3.org/2000/svg" width="485" height="415"><desc>Created with Highstock 5.0.14</desc><defs><clipPath id="highcharts-1y3vp99-7"><rect x="0" y="0" width="435" height="254" fill="none"></rect></clipPath><clipPath id="highcharts-1y3vp99-8"><rect x="0" y="0" width="435" height="254" fill="none"></rect></clipPath></defs><rect fill="#fbfbfb" class="highcharts-background" x="0" y="0" width="485" height="415" rx="0" ry="0"></rect><rect fill="none" class="highcharts-plot-background" x="40" y="90" width="435" height="254"></rect><g class="highcharts-label" style="cursor:pointer;" transform="translate(10,451)"><text x="0" y="0"><tspan>&gt; Indikator-Details</tspan></text></g><g class="highcharts-pane-group"></g><g class="highcharts-grid highcharts-xaxis-grid "><path fill="none" class="highcharts-grid-line" d="M 87.5 90 L 87.5 344" opacity="1"></path><path fill="none" class="highcharts-grid-line" d="M 136.5 90 L 136.5 344" opacity="1"></path><path fill="none" class="highcharts-grid-line" d="M 184.5 90 L 184.5 344" opacity="1"></path><path fill="none" class="highcharts-grid-line" d="M 232.5 90 L 232.5 344" opacity="1"></path><path fill="none" class="highcharts-grid-line" d="M 281.5 90 L 281.5 344" opacity="1"></path><path fill="none" class="highcharts-grid-line" d="M 329.5 90 L 329.5 344" opacity="1"></path><path fill="none" class="highcharts-grid-line" d="M 377.5 90 L 377.5 344" opacity="1"></path><path fill="none" class="highcharts-grid-line" d="M 426.5 90 L 426.5 344" opacity="1"></path><path fill="none" class="highcharts-grid-line" d="M 474.5 90 L 474.5 344" opacity="1"></path><path fill="none" class="highcharts-grid-line" d="M 39.5 90 L 39.5 344" opacity="1"></path></g><g class="highcharts-grid highcharts-yaxis-grid "><path fill="none" stroke="#e6e6e6" stroke-width="1" class="highcharts-grid-line" d="M 40 344.5 L 475 344.5" opacity="1"></path><path fill="none" stroke="#e6e6e6" stroke-width="1" class="highcharts-grid-line" d="M 40 281.5 L 475 281.5" opacity="1"></path><path fill="none" stroke="#e6e6e6" stroke-width="1" class="highcharts-grid-line" d="M 40 217.5 L 475 217.5" opacity="1"></path><path fill="none" stroke="#e6e6e6" stroke-width="1" class="highcharts-grid-line" d="M 40 154.5 L 475 154.5" opacity="1"></path><path fill="none" stroke="#e6e6e6" stroke-width="1" class="highcharts-grid-line" d="M 40 89.5 L 475 89.5" opacity="1"></path></g><g class="highcharts-grid highcharts-yaxis-grid "></g><rect fill="none" class="highcharts-plot-border" x="40" y="90" width="435" height="254"></rect><g class="highcharts-axis highcharts-xaxis "><path fill="none" class="highcharts-axis-line" stroke="#ccd6eb" stroke-width="1" d="M 40 344.5 L 475 344.5"></path></g><g class="highcharts-axis highcharts-yaxis "><path fill="none" class="highcharts-axis-line" d="M 40 90 L 40 344"></path></g><g class="highcharts-axis highcharts-yaxis "><path fill="none" class="highcharts-axis-line" d="M 475 90 L 475 344"></path></g><g class="highcharts-series-group"><g class="highcharts-series highcharts-series-0 highcharts-column-series highcharts-color-undefined " transform="translate(40,90) scale(1 1)" clip-path="url(#highcharts-1y3vp99-8)"><rect x="13" y="223" width="24" height="20" fill="#FF8028" class="highcharts-point"></rect><rect x="61" y="178" width="24" height="36" fill="#FF8028" class="highcharts-point"></rect><rect x="109" y="148" width="24" height="45" fill="#FF8028" class="highcharts-point"></rect><rect x="158" y="124" width="24" height="60" fill="#FF8028" class="highcharts-point"></rect><rect x="206" y="124" width="24" height="60" fill="#FF8028" class="highcharts-point"></rect><rect x="254" y="65" width="24" height="90" fill="#FF8028" class="highcharts-point"></rect><rect x="303" y="59" width="24" height="91" fill="#FF8028" class="highcharts-point"></rect><rect x="351" y="42" width="24" height="95" fill="#FF8028" class="highcharts-point"></rect><rect x="399" y="31" width="24" height="101" fill="#FF8028" class="highcharts-point"></rect></g><g class="highcharts-markers highcharts-series-0 highcharts-column-series highcharts-color-undefined " transform="translate(40,90) scale(1 1)" clip-path="none"></g><g class="highcharts-series highcharts-series-1 highcharts-column-series highcharts-color-undefined " transform="translate(40,90) scale(1 1)" clip-path="url(#highcharts-1y3vp99-8)"><rect x="13" y="243" width="24" height="12" fill="#DC440E" class="highcharts-point"></rect><rect x="61" y="214" width="24" height="41" fill="#DC440E" class="highcharts-point"></rect><rect x="109" y="193" width="24" height="62" fill="#DC440E" class="highcharts-point"></rect><rect x="158" y="184" width="24" height="71" fill="#DC440E" class="highcharts-point"></rect><rect x="206" y="184" width="24" height="71" fill="#DC440E" class="highcharts-point"></rect><rect x="254" y="155" width="24" height="100" fill="#DC440E" class="highcharts-point"></rect><rect x="303" y="150" width="24" height="105" fill="#DC440E" class="highcharts-point"></rect><rect x="351" y="137" width="24" height="118" fill="#DC440E" class="highcharts-point"></rect><rect x="399" y="132" width="24" height="123" fill="#DC440E" class="highcharts-point"></rect></g><g class="highcharts-markers highcharts-series-1 highcharts-column-series highcharts-color-undefined " transform="translate(40,90) scale(1 1)" clip-path="none"></g></g><text x="10" text-anchor="start" class="highcharts-title" style="color:#000000;font-size:1.1em;font-weight:bold;fill:#000000;" y="20"><tspan>Waldrandpflege</tspan></text><text x="10" text-anchor="start" class="highcharts-subtitle" style="color:#000000;font-size:0.9em;fill:#000000;" y="38"><tspan>Kilometer</tspan></text><g class="highcharts-legend" transform="translate(10,40)"><rect fill="none" class="highcharts-legend-box" rx="0" ry="0" x="0" y="0" width="249" height="38" visibility="visible"></rect><g><g><g class="highcharts-legend-item highcharts-column-series highcharts-color-undefined highcharts-series-0" transform="translate(12,7)"><text x="21" style="color:#333333;font-size:1em;font-weight:normal;cursor:pointer;fill:#333333;" text-anchor="start" y="15"><tspan>BS: Ersteingriff</tspan></text><rect x="2" y="4" width="12" height="12" fill="#FF8028" class="highcharts-point"></rect></g><g class="highcharts-legend-item highcharts-column-series highcharts-color-undefined highcharts-series-1" transform="translate(132.9375,7)"><text x="21" y="15" style="color:#333333;font-size:1em;font-weight:normal;cursor:pointer;fill:#333333;" text-anchor="start"><tspan>BS: Nachpflege</tspan></text><rect x="2" y="4" width="12" height="12" fill="#DC440E" class="highcharts-point"></rect></g></g></g></g><g class="highcharts-axis-labels highcharts-xaxis-labels "><text x="64.16666666666667" style="color:#000000;cursor:default;font-size:0.9em;fill:#000000;" text-anchor="middle" transform="translate(0,0)" y="363" opacity="1">2008</text><text x="112.50000000000001" style="color:#000000;cursor:default;font-size:0.9em;fill:#000000;" text-anchor="middle" transform="translate(0,0)" y="363" opacity="1">2009</text><text x="160.83333333333334" style="color:#000000;cursor:default;font-size:0.9em;fill:#000000;" text-anchor="middle" transform="translate(0,0)" y="363" opacity="1">2010</text><text x="209.16666666666669" style="color:#000000;cursor:default;font-size:0.9em;fill:#000000;" text-anchor="middle" transform="translate(0,0)" y="363" opacity="1">2011</text><text x="257.49999999999994" style="color:#000000;cursor:default;font-size:0.9em;fill:#000000;" text-anchor="middle" transform="translate(0,0)" y="363" opacity="1">2012</text><text x="305.83333333333337" style="color:#000000;cursor:default;font-size:0.9em;fill:#000000;" text-anchor="middle" transform="translate(0,0)" y="363" opacity="1">2013</text><text x="354.1666666666667" style="color:#000000;cursor:default;font-size:0.9em;fill:#000000;" text-anchor="middle" transform="translate(0,0)" y="363" opacity="1">2014</text><text x="402.5" style="color:#000000;cursor:default;font-size:0.9em;fill:#000000;" text-anchor="middle" transform="translate(0,0)" y="363" opacity="1">2015</text><text x="450.83333333333337" style="color:#000000;cursor:default;font-size:0.9em;fill:#000000;" text-anchor="middle" transform="translate(0,0)" y="363" opacity="1">2016</text></g><g class="highcharts-axis-labels highcharts-yaxis-labels "><text x="25" style="color:#000000;cursor:default;font-size:0.9em;fill:#000000;" text-anchor="end" transform="translate(0,0)" y="349" opacity="1"><tspan>0</tspan></text><text x="25" style="color:#000000;cursor:default;font-size:0.9em;fill:#000000;" text-anchor="end" transform="translate(0,0)" y="285" opacity="1"><tspan>0.5</tspan></text><text x="25" style="color:#000000;cursor:default;font-size:0.9em;fill:#000000;" text-anchor="end" transform="translate(0,0)" y="222" opacity="1"><tspan>1</tspan></text><text x="25" style="color:#000000;cursor:default;font-size:0.9em;fill:#000000;" text-anchor="end" transform="translate(0,0)" y="158" opacity="1"><tspan>1.5</tspan></text><text x="25" style="color:#000000;cursor:default;font-size:0.9em;fill:#000000;" text-anchor="end" transform="translate(0,0)" y="95" opacity="1"><tspan>2</tspan></text></g><g class="highcharts-axis-labels highcharts-yaxis-labels "></g><text x="10" class="highcharts-credits" text-anchor="start" style="cursor:default;color:#000000;font-size:0.8em;fill:#000000;" y="400"><tspan>Quelle: Amt für Wald beider Basel; Landwirtschaftliches Zentrum Ebenrain</tspan></text></svg>

<svg class="highcharts-root" xmlns="http://www.w3.org/2000/svg" viewBox="0 0 485 415" font-family="Arial" font-size="12">
    <defs>
        <clipPath id="a">
            <path fill="none" d="M0 0h435v254H0z"/>
        </clipPath>
    </defs>
    <rect fill="#fbfbfb" class="highcharts-background" width="485" height="415" rx="0" ry="0"/>
    <path fill="none" class="highcharts-plot-background" d="M40 90h435v254H40z"/>
    <text transform="translate(10 451)" class="highcharts-label" cursor="pointer">
        <tspan>&gt; Indikator-Details</tspan>
    </text>
    <g class="highcharts-grid highcharts-xaxis-grid">
        <path fill="none" class="highcharts-grid-line" d="M87.5 90v254m0-254v254m49-254v254m0-254v254m48-254v254m0-254v254m48-254v254m0-254v254m49-254v254m0-254v254m48-254v254m0-254v254m48-254v254m0-254v254m49-254v254m0-254v254m48-254v254m0-254v254M39.5 90v254m0-254v254"/>
    </g>
    <g class="highcharts-grid highcharts-yaxis-grid">
        <path fill="none" stroke="#e6e6e6" class="highcharts-grid-line" d="M40 344.5h435m-435-63h435m-435-64h435m-435-63h435m-435-65h435"/>
    </g>
    <path fill="none" class="highcharts-plot-border" d="M40 90h435v254H40z"/>
    <g class="highcharts-axis highcharts-xaxis">
        <path fill="none" class="highcharts-axis-line" stroke="#ccd6eb" d="M40 344.5h435"/>
    </g>
    <g class="highcharts-axis highcharts-yaxis">
        <path fill="none" class="highcharts-axis-line" d="M40 90v254"/>
    </g>
    <g class="highcharts-axis highcharts-yaxis">
        <path fill="none" class="highcharts-axis-line" d="M475 90v254"/>
    </g>
    <g class="highcharts-series-group">
        <g class="highcharts-series highcharts-series-0 highcharts-column-series highcharts-color-undefined highcharts-tracker" transform="translate(40 90)" clip-path="url(#a)">
            <path fill="#FF8028" class="highcharts-point" d="M13 223h24v20H13zm48-45h24v36H61zm48-30h24v45h-24zm49-24h24v60h-24zm48 0h24v60h-24zm48-59h24v90h-24zm49-6h24v91h-24zm48-17h24v95h-24zm48-11h24v101h-24z"/>
        </g>
        <g class="highcharts-series highcharts-series-1 highcharts-column-series highcharts-color-undefined highcharts-tracker" transform="translate(40 90)" clip-path="url(#a)">
            <path fill="#DC440E" class="highcharts-point" d="M13 243h24v12H13zm48-29h24v41H61zm48-21h24v62h-24zm49-9h24v71h-24zm48 0h24v71h-24zm48-29h24v100h-24zm49-5h24v105h-24zm48-13h24v118h-24zm48-5h24v123h-24z"/>
        </g>
    </g>
    <text x="10" class="highcharts-title" y="20" color="#000" font-size="1.1em" font-weight="700">
        <tspan>Waldrandpflege</tspan>
    </text>
    <text x="10" class="highcharts-subtitle" y="38" color="#000" font-size=".9em">
        <tspan>Kilometer</tspan>
    </text>
    <g class="highcharts-legend" transform="translate(10 40)">
        <rect fill="none" class="highcharts-legend-box" rx="0" ry="0" width="249" height="38"/>
        <g class="highcharts-legend-item highcharts-column-series highcharts-color-undefined highcharts-series-0">
            <text x="21" y="15" color="#333" font-size="1em" font-weight="400" cursor="pointer" fill="#333" transform="translate(12 7)">
                <tspan>BS: Ersteingriff</tspan>
            </text>
            <path fill="#FF8028" class="highcharts-point" d="M14 11h12v12H14z"/>
        </g>
        <g class="highcharts-legend-item highcharts-column-series highcharts-color-undefined highcharts-series-1">
            <text x="21" y="15" color="#333" font-size="1em" font-weight="400" cursor="pointer" fill="#333" transform="translate(132.938 7)">
                <tspan>BS: Nachpflege</tspan>
            </text>
            <path fill="#DC440E" class="highcharts-point" d="M134.938 11h12v12h-12z"/>
        </g>
    </g>
    <g class="highcharts-axis-labels highcharts-xaxis-labels" text-anchor="middle" color="#000" cursor="default" font-size=".9em">
        <text x="64.167" y="363">
            2008
        </text>
        <text x="112.5" y="363">
            2009
        </text>
        <text x="160.833" y="363">
            2010
        </text>
        <text x="209.167" y="363">
            2011
        </text>
        <text x="257.5" y="363">
            2012
        </text>
        <text x="305.833" y="363">
            2013
        </text>
        <text x="354.167" y="363">
            2014
        </text>
        <text x="402.5" y="363">
            2015
        </text>
        <text x="450.833" y="363">
            2016
        </text>
    </g>
    <g class="highcharts-axis-labels highcharts-yaxis-labels" text-anchor="end" color="#000" cursor="default" font-size=".9em">
        <text x="25" y="349">
            <tspan>0</tspan>
        </text>
        <text x="25" y="285">
            <tspan>0.5</tspan>
        </text>
        <text x="25" y="222">
            <tspan>1</tspan>
        </text>
        <text x="25" y="158">
            <tspan>1.5</tspan>
        </text>
        <text x="25" y="95">
            <tspan>2</tspan>
        </text>
    </g>
    <text x="10" class="highcharts-credits" y="400" cursor="default" color="#000" font-size=".8em">
        <tspan>Quelle: Amt für Wald beider Basel; Landwirtschaftliches Zentrum Ebenrain</tspan>
    </text>
</svg>
